Assets/SVG/room_wide.svg

<svg height="311" viewBox="-.5 -.5 721 311" width="721" xmlns="http://www.w3.org/2000/svg"><g pointer-events="all"><path d="m1.39-1.83 717.26 1.17 1.27 312.31-718.12-2.44" fill="#fff"/><path d="m-.49.22c167.68 2.2 333.4 2.32 719.97-.55m-719.2.04c201.03-2.17 402.02-2.35 720.08.2m-.92 1.1c-1.69 62.87-2.08 129.04 1.15 307.86m-1.27-309.06c1.65 85.02 1.96 169.02.69 310m.26-.21c-232.27-.55-465.52-.11-720.44-.01m720.47.18c-206.54-.85-412.66-1.5-719.91.06m-1.55-.26c2.45-111.75.95-221.72 2.09-309.37m-1.04 309.96c-.54-68.79-1.19-139.37.26-310.81" fill="none" stroke="#000" stroke-linecap="round" stroke-linejoin="round" stroke-miterlimit="10"/></g></svg>

<?xml version="1.0" encoding="UTF-8"?>
<!DOCTYPE svg PUBLIC "-//W3C//DTD SVG 1.1//EN" "http://www.w3.org/Graphics/SVG/1.1/DTD/svg11.dtd">
<svg xmlns="http://www.w3.org/2000/svg" xmlns:xlink="http://www.w3.org/1999/xlink" version="1.1" width="721px" height="311px" viewBox="-0.5 -0.5 721 311"><defs/><g><path d="M 1.39 -1.83 L 718.65 -0.66 L 719.92 311.65 L 1.8 309.21" fill="#ffffff" stroke="none" pointer-events="all"/><path d="M -0.49 0.22 C 167.19 2.42 332.91 2.54 719.48 -0.33 M 0.28 -0.29 C 201.31 -2.46 402.3 -2.64 720.36 -0.09 M 719.44 1.01 C 717.75 63.88 717.36 130.05 720.59 308.87 M 719.32 -0.19 C 720.97 84.83 721.28 168.83 720.01 309.81 M 720.27 309.6 C 488 309.05 254.75 309.49 -0.17 309.59 M 720.3 309.77 C 513.76 308.92 307.64 308.27 0.39 309.83 M -1.16 309.57 C 1.29 197.82 -0.21 87.85 0.93 0.2 M -0.11 310.16 C -0.65 241.37 -1.3 170.79 0.15 -0.65" fill="none" stroke="#000000" stroke-linejoin="round" stroke-linecap="round" stroke-miterlimit="10" pointer-events="all"/></g></svg>
